img/img_bicycle.svg

<svg width="246" height="160" viewBox="0 0 246 160" fill="none" xmlns="http://www.w3.org/2000/svg">
<path d="M44.5708 158.204C53.386 158.204 62.0033 155.596 69.3329 150.71C76.6626 145.824 82.3753 138.879 85.7488 130.753C89.1222 122.628 90.0049 113.687 88.2851 105.061C86.5653 96.4347 82.3204 88.5112 76.087 82.2922C69.8537 76.0733 61.912 71.8381 53.2661 70.1223C44.6202 68.4065 35.6585 69.2871 27.5143 72.6528C19.37 76.0185 12.409 81.718 7.51151 89.0308C2.61401 96.3435 -1.40124e-05 104.941 -1.40124e-05 113.736C-1.40124e-05 125.53 4.69581 136.84 13.0545 145.18C21.4131 153.519 32.7499 158.204 44.5708 158.204ZM44.5708 74.006C52.4741 74.006 60.1999 76.3442 66.7713 80.7249C73.3427 85.1057 78.4645 91.3322 81.489 98.6171C84.5135 105.902 85.3048 113.918 83.7629 121.652C82.2211 129.385 78.4152 136.489 72.8267 142.065C67.2382 147.64 60.118 151.438 52.3666 152.976C44.6151 154.514 36.5805 153.725 29.2787 150.707C21.977 147.69 15.7361 142.58 11.3452 136.023C6.95437 129.467 4.61076 121.759 4.61076 113.874C4.61076 103.3 8.82081 93.1597 16.3148 85.683C23.8087 78.2063 33.9727 74.006 44.5708 74.006Z" fill="#8A9990"/>
<path d="M201.429 158.204C210.244 158.204 218.862 155.596 226.191 150.71C233.521 145.824 239.234 138.879 242.607 130.753C245.981 122.628 246.863 113.687 245.144 105.061C243.424 96.4347 239.179 88.5112 232.946 82.2922C226.712 76.0733 218.77 71.8381 210.125 70.1223C201.479 68.4065 192.517 69.2871 184.373 72.6528C176.228 76.0185 169.267 81.718 164.37 89.0308C159.472 96.3435 156.858 104.941 156.858 113.736C156.858 125.53 161.554 136.84 169.913 145.18C178.272 153.519 189.608 158.204 201.429 158.204V158.204ZM200.984 74.788C222.977 74.788 242.188 91.4405 242.188 113.383C242.188 135.326 223.499 151.978 201.429 151.978C179.359 151.978 161.469 135.74 161.469 113.813C161.44 108.639 162.447 103.512 164.432 98.7333C166.418 93.9542 169.34 89.6193 173.029 85.9834C176.718 82.3475 181.098 79.4841 185.912 77.5615C190.725 75.6389 195.876 74.6959 201.06 74.788H200.984Z" fill="#8A9990"/>
<path d="M43.28 114.487L84.1468 7.36526C84.3284 6.83253 84.6714 6.3693 85.1285 6.03965C85.5856 5.70999 86.1341 5.53023 86.6981 5.52523L114.363 4.54384L114.025 2.47381L86.7134 1.69177C85.3643 1.69917 84.0503 2.1212 82.9502 2.90044C81.8501 3.67969 81.0175 4.77827 80.5657 6.04657L39.7297 113.123L43.28 114.487Z" fill="#C4F0E0"/>
<path d="M145.116 114.395L174.963 41.3451L171.72 40.0264L138.953 111.881L145.116 114.395Z" fill="#C4F0E0"/>
<path d="M143.702 115.683H202.105C202.462 115.683 202.812 115.584 203.115 115.397C203.419 115.21 203.664 114.942 203.824 114.624C203.983 114.305 204.051 113.949 204.019 113.595C203.987 113.24 203.856 112.901 203.642 112.617L166.925 60.6196C166.766 60.394 166.56 60.205 166.321 60.0648C166.083 59.9247 165.817 59.8368 165.542 59.8069L68.808 47.2332L67.4863 51.0513L67.2865 50.9133L64.9042 53.9801L142.427 115.315C142.793 115.589 143.246 115.72 143.702 115.683ZM198.033 111.789L144.978 110.255L75.6934 55.2068L161.961 64.6524L198.033 111.789Z" fill="#C4F0E0"/>
<path d="M76.6006 12.0267C73.2643 22.0214 69.4013 31.8334 65.0276 41.4216C64.9176 41.8905 64.7154 42.3329 64.4326 42.7231C64.1497 43.1134 63.792 43.4436 63.3802 43.6947C62.9684 43.9459 62.5106 44.1127 62.0335 44.1858C61.5565 44.2589 61.0696 44.2366 60.6012 44.1204L34.4735 42.1116C33.4762 42.143 32.497 41.8408 31.6917 41.2529C31.1963 40.7063 30.8521 40.0405 30.6927 39.3209C27.3509 28.4944 27.0795 16.9561 29.9088 5.98514C30.048 5.21606 30.3872 4.49696 30.8925 3.89976C31.424 3.52578 32.0288 3.26823 32.6672 3.14402C33.3056 3.01981 33.963 3.03176 34.5965 3.17907C47.937 4.45177 59.7252 5.09578 73.0196 7.28852C76.2932 7.84054 77.2461 9.98727 76.6006 12.0267Z" fill="#FFF0B0"/>
<path d="M117.867 0.679692C118.283 0.679026 118.684 0.8376 118.987 1.12279C119.29 1.40799 119.472 1.79814 119.496 2.21307C119.639 3.99755 119.467 5.79316 118.989 7.51856C118.606 8.07064 118.073 8.50167 117.452 8.7606C115.469 9.38929 105.156 8.36195 99.2393 7.97861C98.9485 7.98492 98.6599 7.92731 98.394 7.80991C98.1571 7.65659 97.9544 7.45632 97.7984 7.22156C97.6424 6.98679 97.5365 6.72256 97.4872 6.44523C96.9508 4.6094 96.8094 2.6812 97.0722 0.78704C97.0906 0.619842 97.1429 0.458127 97.2259 0.311695C97.4411 -0.0103152 97.9021 -0.010334 98.3017 0.00499985C105.372 0.52635 115.838 0.679692 117.867 0.679692Z" fill="#FFF0B0"/>
<path d="M182.479 31.3471C184.016 31.5465 186.137 32.3745 186.137 34.3373C186.137 36.9133 183.186 40.1641 180.926 41.1608C178.798 41.8843 176.511 42.0063 174.318 41.5135C166.633 40.4861 151.264 37.1127 150.572 34.3679C150.311 33.2792 152.586 32.3132 155.736 31.8991C161.238 31.1631 177.699 30.6571 182.479 31.3471Z" fill="#FFF0B0"/>
<path d="M158.933 95.8721C162.471 87.5265 168.395 80.4059 175.965 75.3997C183.535 70.3935 192.416 67.7236 201.498 67.7236C210.581 67.7236 219.461 70.3935 227.032 75.3997C234.602 80.4059 240.526 87.5265 244.063 95.8721L246 94.124C238.315 75.8921 221.409 63.9164 201.429 63.9164C181.449 63.9164 163.759 76.4288 156.029 94.676L158.933 95.8721Z" fill="#C4F0E0"/>
<path d="M87.1286 95.8718L89.9565 94.6758C87.0932 87.9113 82.7478 81.8725 77.2393 77.0026C71.7309 72.1327 65.1992 68.5553 58.1239 66.5332C51.0485 64.5111 43.6091 64.0955 36.3517 65.317C29.0943 66.5384 22.2032 69.3658 16.1842 73.5918L17.9671 76.1066C23.6093 72.1431 30.0697 69.491 36.8738 68.3449C43.678 67.1989 50.653 67.588 57.2866 69.4838C63.9203 71.3796 70.044 74.7339 75.2081 79.3003C80.3721 83.8666 84.4454 89.5291 87.1286 95.8718V95.8718Z" fill="#C4F0E0"/>
<path d="M134.589 108.185C136.048 106.82 137.842 105.863 139.79 105.411C141.739 104.959 143.772 105.027 145.685 105.609C147.579 106.263 149.194 107.538 150.269 109.225C151.343 110.913 151.814 112.913 151.603 114.901C151.212 116.831 150.328 118.627 149.036 120.115C147.826 121.784 146.271 123.175 144.476 124.194C142.681 125.212 140.688 125.834 138.631 126.018C134.512 126.141 130.209 123.212 129.747 119.118C129.286 115.024 131.546 111.083 134.589 108.185Z" fill="#FFF0B0"/>
</svg>

<svg xmlns="http://www.w3.org/2000/svg" width="246" height="160" fill="none" xmlns:v="https://vecta.io/nano"><path d="M44.571 158.204c8.815 0 17.433-2.608 24.762-7.494s13.042-11.831 16.416-19.957a44.37 44.37 0 0 0 2.536-25.692c-1.72-8.626-5.965-16.55-12.198-22.769s-14.175-10.454-22.821-12.17-17.608-.835-25.752 2.531A44.55 44.55 0 0 0 7.512 89.031 44.39 44.39 0 0 0 0 113.736c0 11.794 4.696 23.104 13.055 31.444a44.62 44.62 0 0 0 31.516 13.024zm0-84.198a40.02 40.02 0 0 1 22.2 6.719 39.89 39.89 0 0 1 14.718 17.892c3.024 7.285 3.816 15.301 2.274 23.035s-5.348 14.837-10.936 20.413a39.99 39.99 0 0 1-20.46 10.911c-7.751 1.538-15.786.749-23.088-2.269a39.94 39.94 0 0 1-17.934-14.684 39.8 39.8 0 0 1-6.734-22.149 39.82 39.82 0 0 1 11.704-28.191c7.494-7.477 17.658-11.677 28.256-11.677zm156.858 84.198c8.815 0 17.433-2.608 24.762-7.494a44.49 44.49 0 0 0 16.416-19.957 44.38 44.38 0 0 0 2.537-25.692 44.44 44.44 0 0 0-12.198-22.769 44.61 44.61 0 0 0-22.821-12.17c-8.646-1.716-17.608-.835-25.752 2.531a44.55 44.55 0 0 0-20.003 16.378 44.39 44.39 0 0 0-7.512 24.705c0 11.794 4.696 23.104 13.055 31.444a44.62 44.62 0 0 0 31.516 13.024h0zm-.445-83.416c21.993 0 41.204 16.653 41.204 38.595s-18.689 38.595-40.759 38.595-39.96-16.238-39.96-38.165a38.74 38.74 0 0 1 2.963-15.08c1.986-4.779 4.908-9.114 8.597-12.75a38.91 38.91 0 0 1 12.883-8.422 38.95 38.95 0 0 1 15.148-2.773h-.076z" fill="#8a9990"/><g fill="#c4f0e0"><path d="M43.28 114.487L84.147 7.365a2.72 2.72 0 0 1 .982-1.326c.457-.33 1.006-.509 1.57-.514l27.665-.981-.338-2.07-27.312-.782c-1.349.007-2.663.429-3.763 1.209a6.55 6.55 0 0 0-2.384 3.146L39.73 113.123l3.55 1.364zm101.836-.092l29.847-73.05-3.243-1.319-32.767 71.855 6.163 2.514z"/><path d="M143.702 115.683h58.403c.357 0 .707-.099 1.01-.286a1.92 1.92 0 0 0 .904-1.802 1.91 1.91 0 0 0-.377-.978L166.925 60.62a1.94 1.94 0 0 0-.604-.555c-.238-.14-.504-.228-.779-.258L68.808 47.233l-1.322 3.818-.2-.138-2.382 3.067 77.523 61.335c.366.274.819.405 1.275.368zm54.331-3.894l-53.055-1.534-69.285-55.048 86.268 9.446 36.072 47.137z"/></g><path d="M76.601 12.027a298.78 298.78 0 0 1-11.573 29.395 3.63 3.63 0 0 1-.595 1.302 3.64 3.64 0 0 1-1.052.972 3.65 3.65 0 0 1-2.779.426l-26.128-2.009a4.48 4.48 0 0 1-2.782-.859c-.495-.547-.84-1.212-.999-1.932a61.2 61.2 0 0 1-.784-33.336 4.46 4.46 0 0 1 .984-2.085c.532-.374 1.136-.632 1.775-.756a4.62 4.62 0 0 1 1.929.035c13.34 1.273 25.129 1.917 38.423 4.109 3.274.552 4.227 2.699 3.581 4.738zM117.867.68a1.63 1.63 0 0 1 1.12.443c.303.285.485.675.509 1.09.143 1.784-.029 3.58-.507 5.305a3.52 3.52 0 0 1-1.537 1.242c-1.983.629-12.296-.399-18.213-.782a1.98 1.98 0 0 1-.845-.169 2.06 2.06 0 0 1-.596-.588 2.05 2.05 0 0 1-.311-.776 13.54 13.54 0 0 1-.415-5.658 1.24 1.24 0 0 1 .154-.475c.215-.322.676-.322 1.076-.307 7.07.521 17.536.675 19.565.675zm64.612 30.667c1.537.199 3.658 1.027 3.658 2.99 0 2.576-2.951 5.827-5.211 6.824a12.21 12.21 0 0 1-6.608.353c-7.685-1.027-23.054-4.401-23.746-7.146-.261-1.089 2.014-2.055 5.164-2.469 5.502-.736 21.963-1.242 26.743-.552z" fill="#fff0b0"/><path d="M158.933 95.872c3.538-8.346 9.462-15.466 17.032-20.472a46.29 46.29 0 0 1 25.533-7.676c9.083 0 17.963 2.67 25.534 7.676a46.13 46.13 0 0 1 17.031 20.472L246 94.124c-7.685-18.232-24.591-30.208-44.571-30.208s-37.67 12.512-45.4 30.76l2.904 1.196zm-71.804 0l2.828-1.196c-2.863-6.764-7.209-12.803-12.717-17.673a49.32 49.32 0 0 0-19.115-10.469 49.4 49.4 0 0 0-21.772-1.216 49.35 49.35 0 0 0-20.167 8.275l1.783 2.515a46.26 46.26 0 0 1 18.907-7.762 46.3 46.3 0 0 1 20.413 1.139A46.23 46.23 0 0 1 75.208 79.3c5.164 4.566 9.237 10.229 11.921 16.572h0z" fill="#c4f0e0"/><path d="M134.589 108.185c1.459-1.365 3.253-2.322 5.201-2.774s3.982-.384 5.895.198c1.894.654 3.509 1.929 4.584 3.616s1.545 3.688 1.334 5.676c-.391 1.93-1.275 3.726-2.567 5.214a14.43 14.43 0 0 1-4.56 4.079 14.46 14.46 0 0 1-5.845 1.824c-4.119.123-8.422-2.806-8.884-6.9s1.799-8.035 4.842-10.933z" fill="#fff0b0"/></svg>
